lib/brands/icons/gitkraken.svg

<svg xmlns="http://www.w3.org/2000/svg" fill="none" aria-hidden="true" viewBox="0 0 48 48"><g id="gitkraken-Icon"><path id="Vector" fill="#128379" d="M40.8435 15.4028C40.6952 15.0173 40.2504 14.8394 39.8946 14.9877C39.6277 15.1063 39.4498 15.3732 39.4498 15.6401C39.4498 15.729 39.4498 15.818 39.5091 15.8773C40.1911 17.6862 40.5766 19.6434 40.5766 21.7192C40.5766 30.1112 34.3196 37.0799 26.1944 38.1178V30.3781C26.6985 30.2892 27.173 30.1409 27.6474 29.9926V36.4869C34.2603 34.8855 39.2125 28.8954 39.2125 21.7192C39.2125 15.9959 36.0395 10.9844 31.3542 8.40449C30.9984 8.19692 30.5535 8.34519 30.3756 8.73069C30.3163 8.81965 30.3163 8.93827 30.3163 9.05688C30.3163 9.32377 30.4646 9.561 30.6722 9.67962C34.9127 12.0223 37.7891 16.5594 37.7891 21.7488C37.7891 27.5907 34.1713 32.5725 29.0412 34.589V28.8361C29.9308 28.5692 30.5832 27.7389 30.5832 26.7307C30.5832 25.9004 30.168 25.2183 29.486 24.8328C29.9901 19.851 32.2735 21.1854 32.2735 19.5841V18.6648C32.2735 16.2925 26.7875 8.55276 24.2076 8.37484H23.7331C21.1532 8.55276 15.6672 16.2925 15.6672 18.6648V19.5841C15.6672 21.1557 17.9209 19.851 18.4547 24.8328C17.8023 25.2183 17.3871 25.93 17.3871 26.7307C17.3871 27.7093 18.0395 28.5396 18.9292 28.8361V34.589C13.8287 32.5725 10.1812 27.5907 10.1812 21.7488C10.1812 16.5594 13.0577 12.0223 17.2982 9.67962C17.6244 9.50169 17.7727 9.08654 17.5947 8.73069C17.5058 8.4638 17.2389 8.31553 16.972 8.31553C16.8534 8.31553 16.7348 8.34519 16.6161 8.40449C11.9308 10.9844 8.75783 15.9959 8.75783 21.7192C8.75783 28.8954 13.71 34.8855 20.3822 36.5165V30.0223C20.8567 30.1706 21.3311 30.3188 21.8353 30.4078V38.1475C13.71 37.0799 7.45305 30.1409 7.45305 21.7192C7.45305 19.673 7.83855 17.7159 8.52059 15.8773C8.66886 15.5215 8.49094 15.1063 8.13509 14.958C8.04613 14.9284 7.95717 14.8987 7.8682 14.8987C7.57166 14.8987 7.30478 15.0767 7.18616 15.3732C6.41516 17.36 6 19.4951 6 21.7192C6 31.416 13.6507 39.304 23.2586 39.6895V30.5857C23.5255 30.6154 24 30.6154 24 30.6154C24 30.6154 24.4745 30.6154 24.7414 30.5857V39.6895C34.3493 39.304 42 31.416 42 21.7192C41.9703 19.4951 41.5848 17.36 40.8435 15.4028ZM27.3213 25.6631C27.5881 25.3963 27.944 25.2183 28.3591 25.2183C28.7743 25.2183 29.1301 25.3963 29.397 25.6631C29.6639 25.93 29.8418 26.2859 29.8418 26.701C29.8418 27.1162 29.6639 27.472 29.397 27.7389C29.1301 28.0058 28.7743 28.1837 28.3591 28.1837C27.944 28.1837 27.5881 28.0058 27.3213 27.7389C27.0544 27.472 26.8764 27.1162 26.8764 26.701C26.8764 26.2859 27.0544 25.93 27.3213 25.6631ZM20.6787 27.7389C20.4119 28.0058 20.056 28.1837 19.6409 28.1837C19.2257 28.1837 18.8699 28.0058 18.603 27.7389C18.3064 27.472 18.1582 27.1162 18.1582 26.701C18.1582 26.2859 18.3361 25.93 18.603 25.6631C18.8699 25.3963 19.2257 25.2183 19.6409 25.2183C20.056 25.2183 20.4119 25.3963 20.6787 25.6631C20.9456 25.93 21.1236 26.2859 21.1236 26.701C21.0939 27.1162 20.9456 27.472 20.6787 27.7389Z"/></g></svg>

<svg xmlns="http://www.w3.org/2000/svg" fill="none" aria-hidden="true" viewBox="0 0 48 48"><path fill="#128379" d="M40.843 15.403a.732.732 0 0 0-.948-.415.74.74 0 0 0-.445.652c0 .089 0 .178.06.237a16.483 16.483 0 0 1 1.067 5.842c0 8.392-6.257 15.36-14.383 16.399v-7.74c.505-.089.979-.237 1.453-.385v6.494c6.613-1.602 11.566-7.592 11.566-14.768a15.199 15.199 0 0 0-7.859-13.315c-.356-.207-.8-.059-.978.327-.06.089-.06.207-.06.326 0 .267.149.504.356.623a13.788 13.788 0 0 1 7.117 12.069c0 5.842-3.618 10.823-8.748 12.84v-5.753a2.18 2.18 0 0 0 1.542-2.105c0-.83-.415-1.513-1.097-1.898.504-4.982 2.787-3.648 2.787-5.249v-.92c0-2.372-5.486-10.111-8.065-10.29h-.475c-2.58.179-8.066 7.918-8.066 10.29v.92c0 1.572 2.254.267 2.788 5.249a2.191 2.191 0 0 0-1.068 1.898c0 .978.652 1.809 1.542 2.105v5.753c-5.1-2.017-8.748-6.998-8.748-12.84a13.79 13.79 0 0 1 7.117-12.07.717.717 0 0 0 .297-.948c-.09-.267-.356-.415-.623-.415a.79.79 0 0 0-.356.088A15.199 15.199 0 0 0 8.758 21.72c0 7.176 4.952 13.166 11.624 14.797v-6.494c.475.149.95.297 1.453.386v7.74C13.71 37.08 7.453 30.14 7.453 21.719c0-2.046.386-4.003 1.068-5.842a.71.71 0 0 0-.386-.919c-.089-.03-.178-.06-.267-.06a.731.731 0 0 0-.682.475A17.483 17.483 0 0 0 6 21.72c0 9.697 7.65 17.585 17.259 17.97v-9.103c.267.03.741.03.741.03s.474 0 .741-.03v9.104C34.35 39.303 42 31.416 42 21.72c-.03-2.225-.415-4.36-1.157-6.317Zm-13.522 10.26a1.456 1.456 0 0 1 1.038-.445c.415 0 .771.178 1.038.445s.445.623.445 1.038c0 .415-.178.771-.445 1.038a1.456 1.456 0 0 1-1.038.445c-.415 0-.77-.178-1.038-.445a1.456 1.456 0 0 1-.445-1.038c0-.415.178-.771.445-1.038ZM20.68 27.74a1.455 1.455 0 0 1-1.038.445c-.415 0-.771-.178-1.038-.445-.297-.267-.445-.623-.445-1.038 0-.415.178-.771.445-1.038a1.456 1.456 0 0 1 1.038-.445c.415 0 .77.178 1.038.445.267.267.445.623.445 1.038-.03.415-.178.771-.445 1.038Z"/></svg>
